X:1
T:Les Orientales
T:Les tronçons du serpent
T:A Madame Ch. Lamoureux (BRUNET-LAFLEUR) 
T:Les Orientales
T:4. Les tronçons du serpent
T:Marie Jaëll 
T:Victor Hugo 
T:Creative Commons copyright waiver (CC0 1.0 Universal)
T:Creative Commons copyright waiver (CC0 1.0 Universal)
T:Creative Commons copyright waiver (CC0 1.0 Universal)
T:Creative Commons copyright waiver (CC0 1.0 Universal)
T:Creative Commons copyright waiver (CC0 1.0 Universal)
T:Creative Commons copyright waiver (CC0 1.0 Universal)
T:Creative Commons copyright waiver (CC0 1.0 Universal)
T:Creative Commons copyright waiver (CC0 1.0 Universal)
T:Creative Commons copyright waiver (CC0 1.0 Universal)
T:Creative Commons copyright waiver (CC0 1.0 Universal)
T:Creative Commons copyright waiver (CC0 1.0 Universal)
C:Marie Jaëll
Z:Victor Hugo
Z:Creative Commons copyright waiver (CC0 1.0 Universal)
%%score ( 1 2 ) { ( 3 5 7 ) | ( 4 6 ) }
L:1/8
Q:1/4=172
M:6/8
K:C
V:1 treble nm="Chant\nVoice"
V:2 treble 
V:3 treble nm="Piano"
V:5 treble 
V:7 treble 
V:4 bass 
V:6 bass 
V:1
"^Très vite" z6 | z6 | z6 | z6 | z6 |[M:2/4]"^Voice: local time signature 2/4" z3 z3/2!p! A | %6
w: |||||Je|
 c3 A | A A A A |!<(! E4!<)! |!>(! F2!>)! F3/2 F/ | E4 | z3 A2 | _B3 A | G3 F | E4 | E2 D2 | %16
w: veille, et|nuit et jour mon|front|rêve en- flam-|\- mé,|Ma|joue en|pleurs ruis-|sel-|\- le, De-|
 ^C2 G2 | _B2 ^c2 |!<(! (de f2-)!<)! |!>(! f4!>)! |!p! e f (3d c d |!<(! (_B^c d2-)!<)! | %22
w: puis qu’Al-|ba- y-|dé _ _|_|dans la tombe a fer-|mé _ _|
!>(! d4!>)! |!p! =c d (3_B A B | _A2 A z3/2 | z6 | z6 | z3/2 G G G |!<(! A A!<)!!>(! A2!>)! | %29
w: _|Ses beaux yeux de ga-|zel- le.|||Car elle a-|vait quinze ans,|
 z3!<(! A A | c2!<)!!>(! B A | A4!>)! | z3 ^B B | ^c2!<(! A A!<)! |!>(! ^G2 ^F2!>)! | z3 E E | %36
w: un sou-|rire in- gé-|nu,|Et m’ai-|mait sans mé-|\- lan ge,|Et quand|
!<(! D2 D D!<)! |!>(! E3 E!>)! | ^F2 F F | ^G4 | A4 |!<(! B B B2!<)! | =d3 d |!>(! d4!>)! | %44
w: el- le croi-|sait ses|bras sur son|sein|nu,|On cro- yait|voir un|an-|
 ^c2 z3 | z6 | z6 | z6 | z6 | z6 | !fermata!z3!p! E2 | G4 | z6 | !fermata!z3 G2 | %54
w: \- ge!||||||Un|jour,||pen-|
[Q:1/4=114]"^Plus lent" E4 |[M:6/8] z2 F G2 A | _B2 G E2 A | F E F D ^C D | E3 E z z | z6 | %60
w: sif,|J’er- rais au|bord d’un golfe, ou-|vert En- tre deux pro- mon-|toi- res,||
[M:2/4]"^Voice:  local time signature 2/4" z3 G G | _B2 G E | ^C2 C2 | (3z3!<(! ^c2 d2!<)! | %64
w: Et je|vis sur le|sa- ble|un ser-|
 !>!e4- | (3e2 G2 A2 | F4 | z3/2!<(! F G F!<)! |!>(! _B A ^G G!>)! |[Q:1/4=172]"^Tempo I" z6 | z6 | %71
w: pent|_ jaune et|vert,|Jas- pé de|ta- ches noi- res.|||
 z6 | z3 z3/2!f! A | ^d4 | e z3/2 z3 | z3/2 c c c | A A A E | F F F2 | z3/2 E A E | E2- (3(ED) ^C | %80
w: |La|ha-|che|en vingt tron-|çons a- vait cou| \- pé vi- vant|Son corps que|l'onde _ _ ar-|
 D2 F F | G2 A A | _B3 F | G G A A | _B2 =B B | c3 e | e4 | ^d3 d | z3/2!ff! ^d d d | e f e c | %90
w: rose, Et l’é-|cu- me des|mers que|lui je- tait le|vent Sur son|sang flot-|tait|ro- se.|Tous ses an-|neaux ver- meils ram-|
 A A G F | E2 F G | A2 _B B | A2 _B2 | z3 ^c c | d4 | ^c2 e2 | g3 ^c | d d e f | d4- | d3 d | %101
w: paient en se tor-|dant Sur la|grève i- so-|lé- e,|Et le|sang|em- pour-|\- prait d’un|rou- ge plus ar-|dent|_ Sa|
 f3 d | d3 d |!>(! ^c4!>)! | d2 z3 | z6 | z6 | z6 | z3!p! F F | G2 G G | A2 z3/2 A | G3 z3/2 | %112
w: crê- te|den- te-|é-|e||||Ces tron-|çons dé- chi-|rés, é-|pars,|
 A2 A A | B2!<(! B2!<)! | !>!A2 A2 | G2 G2 | F4 | E2 z3 | z6 | A A A2- | A2 z3 | %121
w: près d’é- pui-|ser Leurs|for- ces|lan- guis-|san-|tes,||Se cher- chaient,|_|
 z3[Q:1/4=169]"^retenu" A A |[Q:1/4=166] _B2 G G |[M:6/8][Q:1/4=163] G ^G B d3- | %124
w: se cher-|chaient, com- me|pour un bai- ser|
[Q:1/4=160] d3 A ^G ^F |[Q:1/4=157] ^F2 =F F2 F |[Q:1/4=154] z6 |[Q:1/4=151] z6 |[Q:1/4=148] z6 | %129
w: _ Deux bou- ches|fré- mis- san- tes!||||
[Q:1/4=145] z6 |[Q:1/4=172]"^a tempo" z6 | z6 ||[M:2/4] z2 z ^D | ^G ^^F G ^A | B4 | z2 c2- | %136
w: |||Et|com- me je rê-|vais,|tris-|
 c2 A2 | z2 F2 | F2 A2 |!<(! c4!<)! | !>!_d4- | d!f! _d c _B | A _B!>(! E E!>)! | z4 | z4 | z4 | %146
w: * te|et|sup- pli-|ant|Dieu|_ Dans ma pi-|tié mu- et- te,||||
 z2!p! E2 | E4- |[Q:1/4=175] E E F E |[Q:1/4=178] A3!<(! ^G |[Q:1/4=181] A B c d!<)! | %151
w: La|tête|_ aux mil- le|dents rou-|vrit son œil de|
[Q:1/4=184] !>!e4 |[Q:1/4=152] z2!f! ^F G | ^c4 |[Q:1/4=172] z4 | z4 | z4 | z4 | %158
w: feu,|Et me|dit:|||||
!p! (3z2"^add open quote to \nmatch close quote \nin bar 226\n" ^C2 D2 | E2 E2 | z D E E | F4 | %162
w: “O po-|è- te!|Ne plains que|toi!|
 z!p! E D2 | E D (3E F G | A4 | z!p! A !>!_B2- |"^fixed\nduration\n" B A _B G | F2 E2 | %168
w: ton mal|est plus en- ve- ni-|mé,|Ta plaie|_ est plus cru-|el- le;|
 (3z!mp! F G (3A B ^c |!<(! (de)!<)! f2- |!>(! f4!>)! | e f (3d c d |!<(! (_Bc) d2-!<)! | %173
w: Car ton Al- ba- y-|dé _ _|_|dans la tombe a fer-|mé _ _|
!>(! d4!>)! | c!p! d (3_B A B | (G F2 (3^D/E/F/) | E2 z2 | z2 z!p! A | A A A2- | A A A2 | A2 A A | %181
w: _|Ses beaux yeux de ga-|zel- * * * *|le.|"Ce|coup de hache|_ aus- si|bri- se ton|
 A A A2 | z4 | z4 | z!mp! A A2- | A A!<(! A A!<)! | (3!>!A !>!A !>!B (3!>!c !>!A !>!B | %187
w: jeune es- sor.|||Ta vie|_ et ta pen-|sée Au- tour d'un sou- ve-|
!>(! c2!>)!!p! (3A B c | (3:2:2A2 B c2 | z c B A | F3/2 F/ F F | z4 | z4 | (3z E F (3D E D | %194
w: nir, chaste et der-|nier tré- sor,|Se traî- nent|dis- per- sé- es.|||"Ton gé- nie au vol|
 E2- (3E F E | F2- (3F G A | F2 A A/ G/ |!<(! F G!<)! (3!>!A A A | d A G F | G2 A A | d2 e f | %201
w: large, _ é- cla-|\- tant, _ gra- ci-|eux, Qui, mieux que|l’hi- ron- del- le, Tan-|tôt ra- sait la|terre et tan-|\- tôt dans les|
 d3 c | d c A G | A2 A2 | z2 A A | _B2 G E | ^C4 | G2 ^F E | ^D3 ^F | A4 | z2 A A | _B2 _G _E | %212
w: cieux Don-|nait de grands coups|d’ai- le,|Com- me|moi main- te-|\- nant,|meurt près des|flots trou-|blés;|Et ses|for- ces s’é-|
 D2 _E2 | z4 | E E F2 | G F G2- | G2 ^G G | A4- | A2 ^G G | A4 | z2!<(! E2!<)! |!>(! F4!>)! | %222
w: \- tei- gnent,||Sans pou- voir|ré- u- nir|_ ses tron-|çons|_ mu- ti-|lés|Qui|ram-|
 E2 z2 | D3!<(! D!<)! |!>(! E4!>)! | E2 z2 |[Q:1/4=160] z4 | z4 |[Q:1/4=150] z4 | z4 | %230
w: pent|et qui|sai-|\-gnent.”|||||
[Q:1/4=140] z4 |[Q:1/4=100] !fermata!z4 |] %232
w: ||
V:2
 x6 | x6 | x6 | x6 | x6 |[M:2/4] x11/2 | x4 | x4 | x4 | x4 | x4 | x5 | x4 | x4 | x4 | x4 | x4 | %17
 x4 | x4 | x4 | x4 | x4 | x4 | x4 | x9/2 | x6 | x6 | x9/2 | x4 | x5 | x4 | x4 | x5 | x4 | x4 | x5 | %36
 x4 | x4 | x4 | x4 | x4 | x4 | x4 | x4 | x5 | x6 | x6 | x6 | x6 | x6 | x5 | x4 | x6 | x5 | x4 | %55
[M:6/8] x6 | x6 | x6 | x6 | x6 |[M:2/4] x5 | x4 | x4 | x14/3 | x4 | x4 | x4 | x9/2 | x4 | x6 | x6 | %71
 x6 | x11/2 | x4 | x11/2 | x9/2 | x4 | x4 | x9/2 | x4 | x4 | x4 | x4 | x4 | x4 | x4 | x4 | x4 | %88
 x9/2 | x4 | x4 | x4 | x4 | x4 | x5 | x4 | x4 | x4 | x4 | x4 | x4 | x4 | x4 | x4 | x5 | x6 | x6 | %107
 x6 | x5 | x4 | x9/2 | x9/2 | x4 | x4 | x4 | x4 | x4 | x5 | x6 | x4 | x5 | x5 | x4 |[M:6/8] x6 | %124
 x6 | x6 | x6 | x6 | x6 | x6 | x6 | x6 ||[M:2/4] x4 | x4 | x4 | x4 | x4 | x4 | x4 | x4 | x4 | x4 | %142
 x4 | x4 | x4 | x4 | x4 | x2"^accel." x2 | x4 | x4 | x4 | x4 | x4 | x4 | x4 | x4 | x4 | x4 | x4 | %159
 x4 | x4 | x4 | x4 | x4 | x4 | x4 | x4 | x4 | x4 | x4 | x4 | x4 | x4 | x4 | x4 | x4 | x4 | x4 | %178
 x4 | x4 | x4 | x4 | x4 | x4 | x4 | x4 | x4 | x4 | x4 | x4 | x4 | x4 | x4 | x4 | x4 | x4 | x4 | %197
 x4 | x4 | x4 | x4 | x4 | x4 | x4 | x4 | x4 | x4 | x4 | x4 | x4 | x4 | x4 | x4 | x4 | x4 | x4 | %216
 x4 | x4 | x4 | x4 | x4 | x4 | x4 | x4 | x4 | x4 | x4 | x4 | x4 | x4 | x4 | x4 |] %232
V:3
 z2!<(! (^D ^E)GA- | A6-!<)! |!mf! A2!mp!!>(! (^D ^E)GA- | A6-!>)! |!pp! x e3 x x | x ^d3 x x | %6
 x e3 x x | x ^d3 x x |!<(! x e3 x x!<)! |!>(! x ^d3 x x!>)! |!>(! x e3 x x!>)! | x e3 x x | %12
 AGA _B!<(!c^c-!<)! |!pp! cEF G!<(!A_B-!<)! |!pp! B^C(D E)!<(!FG-!<)! |!pp! G^C(D E)!<(!FG-!<)! | %16
 G^A,(^B, ^C)!<(!^DE-!<)! |!pp! E^A,(^B, ^C)^DE- | E_B,!<(!(^C D)EF- | F_B,(^C D)E!<)!F- | %20
 F_B,!>(!(^C D)EF-!>)! | F_B,!<(!(^C D)EF- | F_B,(^C D)!<)!EF- |!>(! F_B,(^C D)EF-!>)! | %24
 F^G(^C D)EF- |!<(! F^G(^C D)EF-!<)! |!>(! FG(^B, ^C)^DE-!>)! | EG(C ^C)_E=E- | %28
!pp! E^D(B A)!<(!Bc-!<)! |!pp! cE(B A)!<(!Bc-!<)! |!pp! c^D(B A)!<(!Bc-!<)! | %31
!pp! cE(B A)!<(!Bc-!<)! | c^B,(^G ^F)!<(!GA-!<)! |!pp! A^C(^G ^F)GA- | A^B,(^G ^F)GA- | %35
 A^c(A G)A_B- | Bd(^G ^F)GA- | Ae(A G)A_B- | Bd(^G ^F)GA- | A^c(^F ^E)F^G- | %40
 G^c(^F E)F"_add \nprecautionary \nnatural\n"!courtesy!=G- |!<(! GB(E ^D)E^F-!<)! | %42
 F_B(E!>(! D)E=F- | F_B(E D)EF- | FE!>)!(D ^C)EG- |!<(! GgA _Bc^c-!<)! | cfG ^G^AB- | Be^F GA_B- | %48
 BdE FG^G- | %49
 G"^include C\nin previous\nslur\n"^c^D EF"^add \nprecautionary \nnatural\n"!courtesy!=G- | %50
 !fermata!G6- | G6 |!p! z2 (^D E)FG- | !fermata!G6 |"^Plus lent" z6 | %55
[M:6/8]"^Voice & Piano:  general time signature 6/8"!p! z6 |[K:bass] E,-G,(A, _B,2) z | %57
[K:treble]!mp!!>(! DE(F A2)!>)! z |!mp!!>(! eg(a _b2)!>)! z |!>(! (E2 G2 A2!>)! | [CE_B]6-) | %61
 [CEB]6 | z6 | z6 | z6 | z6 | z6 | z6 | z6 |"^Tempo I"!p! B,!<(!C^CD^DE | F^FG^GA_B-!<)! | %71
!f!!>(! Ba(^D ^E)GA- | Aa(E F)GA-!>)! |!mf! Aa(^D ^E)GA- | Aa(E F)GA- | A^d(^D ^E)GA- | %76
 Ae(E F)GA- | A^d(^D ^E)GA- | Ae(E F)GA- | A^c(^D E)FG- | G_B(^C D)EF | E^B,^C FCD | G^DE F^C=D | %83
 E^B,^C FCD | G^DE ^GDE | A^DE!<(! ADE | ^G^DE GDE | A^^C^D ACD-!<)! |!ff! D!>(!!>(!^d(^D ^E)GA- | %89
 Ae(E F)GA-!>)! |!f! A^d(^D ^E)GA- | Ae(E F)GA- | Ae(E G)A_B-!>)! |!mf! Be(E G)!<(!A_B!<)! | %94
 (!>!_b!mf!c'b-) b!<(!((ag!<)! | !>!f!mf!gf-)) f!<(!(ed!<)! | !>!^c!mf!dc-) c!<(!(_BA!<)! | %97
 !>!G!mf!AG-) G!<(!(FE!<)! | !>!DEF-) F3 | (!>!d!mf!ed-) d(_BA | !>!^GAG-) G(FE | %101
"_dim." DED-) D(_BA | ^GAG-) G3 |!p! (=GAG-!<(! G)(FE!<)! |!>(! DED-!>)! D3) | %105
!p!!<(! (GAG- G)(FE!<)! | DED- D3) |!>(! DED- D3!>)! | z2 z z FE- | E3- EFE- | E3- EFE- | %111
 E3- EFE- | E3- EFE- | E3- EFE- | E3- EFE- | E3- EFE- | E3- EFE- | E3-!pp! EFE- | %118
 E2!<(! (^D!<)! ^E)GA- | A z!<(! (E!<)! F)GA- | A z!<(! (^D!<)! ^E)GA- | %121
 A z!<(! (E!<)!"_retenu" F)GA | z (_B^D EFG) | %123
[M:6/8]"_Voice & Piano:  general time signature 6/8" z (BE FG^G) | z (d^E ^F^GA) | z (_eA _B=Bc) | %126
 z (c_E FGA) | z (AB, C-D_E- | [CE]6-) | [CE]3 z2 z |"^a tempo" z2 z z!<(! (B,C | %131
 ^C3)!<)!!>(! (D3 ||[M:2/4]"^Voice & Piano:  general time signature 2/4" ^D4-)!>)! | D4- | D2 z2 | %135
!>(! (^D2 E2-!>)! | E4) |!>(! (E2 F2-!>)! | F4) |!<(! (F2 _G2!<)! |!>(! !>!F4-)!>)! | F4 | %142
!pp!!>(! [_B,E]4-!>)! | [B,E]4- | [B,E]4 | z2 E2 | E4- | E2 E2 | E4- | E2 E2 | %150
 E3!pp!"_Is there a way to\nbeam to the next line?\n" E- | E [Ee]2 [ee']- |[ee'] z!p! [^A,E]2- | %153
 [A,E]4 |!<(! [B,^C]D-!<)! !>!^G2- | [G,DG]4- | [G,DG]4 |!p! !//-!A2 A,2 |!<(! !//-!A2 A,2 | %159
 !//-!A2 A,2 | !//-!A2 A,2 | !//-!A2 A,2 | !//-!A2 A,2 | !//-!A2 A,2 | !//-!A2 A,2 | !//-!A2 A,2 | %166
 !//-!A2 A,2 | !//-!A2 A,2 | !//-!A2 A,2!<)! |!mf!!>(! !//-!A2 A,2 | !//-!A2 A,2 | %171
 !//-!A2 A,2!>)! |!p! !//-!A2 A,2 | !//-!A2 A,2 | !//-!A2 A,2 | !//-!A2 A,2 |!p! !//-!A2 A,2 | %177
 !//-!A2 A,2 | !//-!A2 A,2 | !//-!A2 A,2 | !//-!A2 A,2 |!mp! !//-!A2 A,2 | !//-!A2 A,2 | %183
 !//-!A2 A,2 | !//-!A2 A,2 | !//-!A2 A,2 |!pp! (!//-!A2 A,2 | !//-!A2 A,2 | !//-!A2 A,2 | %189
 !//-!A2 A,2 | !//-!A2 A,2 | !//-!A2 A,2 | !//-!A2 A,2) |!pp! (!//-!A2 A,2 | !//-!A2 A,2 | %195
 !//-!A2 A,2 | !//-!A2 A,2) | (!//-!A2 A,2 | !//-!A2 A,2 | !//-!A2 A,2 | !//-!A2 A,2 | %201
 !//-!A2 A,2 | !//-!A2 A,2 | !//-!A3/2 A,3/2)[K:bass]!p!!<(! (D, |^C,)!<)! z z2 | z4 | z4 | %207
 z2 z!p!!<(! (^C |=C)!<)! z z2 | z2 z!p!!<(! (C |B,)!<)! z z!p!!<(! (B, |_B,)!<)! z z2 | z4 | %213
 z2 z!p!!<(! (_B, |A,)!<)! z!>(! z2 | !//-!A,,2 A,2!>)! |!pp!!<(! !//-!A,,2 A,2 | !//-!A,,2 A,2 | %218
 !//-!A,,2 A,2 | !//-!A,,2 A,2 |[K:treble] (!//-!A,2 A2 | !//-!A,2 A2 | !//-!A,2 A2 | !//-!A,2 A2 | %224
 !//-!A,2 A2 | !//-!A,2 A2!<)! |!p!!>(! !//-!A,2 A2 | !//-!A,2 A2 | !//-!A,2 A2 | !//-!A,2 A2 | %230
 !//-!A,2 A2!>)! |!pp! !//-!A,2 !fermata!A2) |] %232
V:4
"^General time\nsignature 6/8\n" z6 | z6 | z6 | z6 |!ped! A,,E,(A, C)A,E,!ped-up! | %5
"^Piano:\ngeneral time\nsignature 6/8\n"!ped! A,,F,(A,B,)A,F,!ped-up! | %6
!ped! A,,E,(A,C)A,E,!ped-up! | A,,F,(A,B,)A,F, | A,,E,(CC)A,E, | A,,F,(A,B,)A,F, | A,,E,(A,C)A,E, | %11
 A,,E,(A,C)A,E, | A,,G,(^CE)CG, | A,,G,(^CE)CG, | A,,E,(G,^C)G,E, | A,,E,(G,_B,)G,E, | %16
 A,,E,(G,^A,)G,E, | =A,,E,(G,^A,)G,E, | A,,D,(F,_B,)F,D, | A,,D,(F,_B,)F,D, | A,,D,(F,_B,)F,D, | %21
 A,,D,(F,_B,)F,D, | A,,D,(F,_B,)F,D, | A,,D,(F,_B,)F,D, | A,,F,(^G,=B,)G,F, | A,,F,(^G,B,)G,F, | %26
 A,,E,(G,^A,)G,E, | A,,E,(G,^A,)G,E, | A,,F,(A,B,)A,F, | A,,E,(A,C)A,E, | A,,F,(A,B,)A,F, | %31
 A,,E,(A,C)A,E, | A,,D,(^F,A,)F,D, | A,,^C,(^F,A,)F,C, | A,,D,(^F,A,)F,D, | A,,G,(^CE)CG, | %36
 A,,^F,(A,D)A,F, | A,,G,(^CE)CG, | A,,^F,(A,D)A,F, | A,,F,(^G,^C)G,F, | A,,=E,(=G,^C)G,E, | %41
 A,,^D,(^F,B,)F,D, | A,,=D,(=F,_B,)F,D, | A,,D,(F,_B,)F,D, | A,,E,(G,_B,)G,E, | A,,G,^CECG, | %46
 A,,^G,DFDG, | A,,G,^CECG, | A,,F,_B,DB,F, | A,,E,G,^C-G,-E,- | !fermata![E,G,C]6- | [E,G,C]6 | %52
 A,,E,(G, ^C3-) | !fermata!C6 | z2!<(! (^C,!<)!!>(! ^B,,)C,^D,-!>)! | %55
[M:6/8]!<(! D,2 (=D, ^C,)_B,,(A,,!<)! |!>(! G,,3-)!>)! G,,2 z | [F,A,]3- [F,A,]2 z | %58
[K:treble] _B2 (A G2) z |[K:bass] _B,4 (A,2 |"_Piano:\ngeneral time\nsignature 6/8\n" G,6-) | G,6 | %62
!pp! (!//-!A,,,3 A,,3 | !//-!A,,,3 A,,3 | !//-!A,,3 A,3 | !//-!A,,3 A,3 | !//-!A,,3 A,3 | %67
!<(! !//-!A,,3 A,3!<)! |!>(! !//-!_B,,3 _B,3)!>)! |!ped! (=B,, _B,,2- B,,3)!ped-up! | %70
!ped! (=B,, _B,,2- B,,3)!ped-up! |!ped! A,,F,(A,B,)A,F,!ped-up! | A,,E,(A,C)A,E, | %73
 A,,F,(A,B,)A,F, | A,,E,(A,C)A,E, | A,,F,(A,B,)A,F, | A,,E,(A,C)A,E, | A,,F,(A,B,)A,F, | %78
 A,,E,(A,C)A,E, | A,,E,(G,_B,)G,E, | A,,D,(F,_B,)F,D, |!ped! A,,E,G,-G,F,A,!ped-up! | %82
!ped! A,,G,_B,- B,F,A,!ped-up! |!ped! A,,E,G,- G,F,A,!ped-up! |!ped! A,,G,_B,- B,^G,=B,!ped-up! | %85
!ped! A,,A,C- CA,C!ped-up! |!ped! A,,E,B,-B,E,B,!ped-up! | A,,^E,^B,- B,E,B, | A,,F,(A,B,)A,F, | %89
 A,,E,(A,C)A,E, | A,,F,(A,B,)A,F, | A,,E,(A,C)A,E, | A,,E,(G,^C)G,E, | A,,E,(G,^C)G,E, | %94
!mf!!>(! !>!A,,G,^CECG,!>)! |!mf!!>(! !>!A,,F,A,DA,F,!>)! |!mf!!>(! !>!A,,E,G,^CG,E,!>)! | %97
!mf!!>(! !>!A,,E,G,^CG,E,!>)! |!mf!!>(! !>!A,,D,F,_B,F,D,!>)! |!mf!!>(! !>!A,,F,_B,DB,F,!>)! | %100
!mf!!>(! !>!A,,D,F,_B,F,D,!>)! | A,,D,F,_B,F,D, | A,,D,F,_B,F,D, | A,,E,G,^CG,E, | A,,D,F,_B,F,D, | %105
 A,,E,G,^CG,E, | A,,D,F,_B,F,D, | A,,D,=B,F,D,A,, |!pp!!<(! A,,E,F,!<)! !>!A,3 | %109
!pp!!<(! B,,E,F,!<)! !>!B,3 |!pp!!<(! C,E,F,!<)! !>!C3 |!pp!!<(! B,,E,F,!<)! !>!B,3 | %112
!pp!!<(! C,E,F,!<)! !>!C3 |!pp!!<(! D,E,F,!<)! !>!D3 |!pp!!<(! C,E,F,!<)! !>!C3 | %115
!pp!!<(! B,,E,F,!<)! !>!B,3 |!pp!!<(! A,,E,F,!<)! !>!A,3 |!pp!!<(! A,,E,F,!<)! !>!A,3 | %118
 x2 x B,2 x | x2 x C2 x | x2 x B,2 x | x2 x C2 x | ^C2 x4 |[M:6/8] D2 x4 | x6 | CA,=F, A,,3 | %126
 CA,F, A,,3 | CA,F,- [A,,F,]3- | [A,,F,]6- | [A,,F,]3 z z2 | z6 | z3 [B,,^G,]3- || %132
[M:2/4] [B,,G,]4- | [B,,G,]4- | [B,,G,]2 z2 | [C,A,]4- | [C,A,]4 | [D,A,]4- | [D,A,]4 | [_E,A,]4 | %140
 [_D,_B,]4- | [D,B,]4 | _G,4- | G,2!pp! (_G,,2- | G,,2 F,,2) | x2 E,2 | E,4- | E,2 E,2 | E,4- | %149
 E,2 E,2 | E,3!<(! E,- | E,!<)!!<(! B,C!<)!!<(![I:staff -1] B |c!<)![I:staff +1] z [^C,G,]2- | %153
 [C,G,]4 | x4 |!<(! x4!<)! | x4 | x4 | z4 | z4 | A,,,2 z2 | z2 A,,,2 | z4 | z4 | z2 A,,,2 | z4 | %166
 z4 | z4 | A,,,2 z2 | z4 | A,,,2 z2 | z4 | z4 | A,,,2 z2 | z4 | z4 | z2 A,,,2 | (_B,,,2 _B,,2 | %178
 =B,,2 B,,,2 | C,,3)!<(! (C,!<)! | ^C,2 ^C,,2 | D,,3)!<(! (D,!<)! |!<(! ^D,2 ^D,,2 | %183
 =D,,3) (D,!<)! |!>(! ^D,2 ^D,,2 | E,,2 E,2)!>)! | (!>![F,,F,]4 | [E,,E,]4- | [E,,E,]4 | %189
 [_E,,_E,]4 | [D,,D,]4) | z!<(! (C!<)!!>(!B,A, | F,>F, F,2)!>)! | (!//-!D,,2 D,2 | !//-!D,,2 D,2 | %195
 !//-!D,,2 D,2 | !//-!D,,2 D,2) | (!//-!D,,2 D,2 | !//-!D,,2 D,2 | !//-!D,,2 D,2 | !//-!D,,2 D,2 | %201
 !//-!D,,2 D,2 | !//-!D,,2 D,2 | !//-!D,,3/2 D,3/2) (D,, |^C,,) z z2 | x4 | x4 | x3 (^C, | %208
=C,) x x2 | x3 (C, |B,,) z z (B,, |_B,,) z z2 | x4 | x3 (_B,, |A,,) x x2 |"_sans " z4 | %216
!p! A,,,2 z2 | z2 A,,,2 | z4 | z2 A,,,2 | z4 | z4 | z2 A,,,2 | z4 | z4 | z2 z3/2!p!!<(! (E,,/!<)! | %226
!>(! F,,7/2) (E,,/ | D,,7/2)!>)!!<(! (E,,/!<)! |!>(! F,,7/2) (E,,/ | D,,7/2)!>)!!<(! (E,,/!<)! | %230
 !>!A,,,2) z2 | !fermata!A,,,4 |] %232
V:5
 x6 | x6 | x6 | x6 | Ae(E F)GA- | A^d(^D ^E)GA- | Ae(E F)GA- | A^d^D ^EGA- | Ae(E F)GA- | %9
 A^d^D ^EGA- | Ae(E F)GA- | Ae(E F)GA- | x6 | x6 | x6 | x6 | x6 | x6 | x6 | x6 | x6 | x6 | x6 | %23
 x6 | x ^G3 x2 | x ^G3 x2 | x =G3 x2 | x G3 x2 | x6 | x E2 x3 | x ^D2 x3 | x E2 x3 | x ^B,2 x3 | %33
 x ^C2 x3 | x ^B,2 x3 | x ^c2 x3 | x d2 x3 | x e2 x3 | x d2 x3 | x ^c2 x3 | x ^c2 x3 | x B2 x3 | %42
 x _B2 x3 | x _B2 x3 | x5 (G | x !tenuto!g2 x3 | x !tenuto!f2 x3 | x !tenuto!e2 x3 | %48
 x !tenuto!d2 x3 | x !tenuto!^c2) x3 | x6 | x6 | x6 | x6 | x6 |[M:6/8] x6 | %56
[K:bass] D,3- [D,E,]2 x |[K:treble] x6 | [^ce]3- [ce]2 x | [^CE]6- | x6 | x6 | x6 | x6 | x6 | x6 | %66
 x6 | x6 | x6 | x6 | x6 | x a3 x2 | x a3 x2 | x a3 x2 | x a3 x2 | x ^d3 x2 | x e3 x2 | x ^d3 x2 | %78
 x !tenuto!e3 x2 | x ^c3 x2 | x _B3 x2 | !>!E2 x !>!F2 x | !>!G2 x !>!F2 x | !>!E2 x !>!F2 x | %84
 !>!G2 x !>!^G2 x | !>!A2 x !>!A2 x | !>!^G2 x !>!G2 x | !>!A2 x !>!A2 x | x !>!^d2 x3 | %89
 x !>!e2 x3 | x !>!^d2 x3 | x !>!e2 x3 | x !>!e2 x3 | x !>!e2 x3 | x6 | x6 | x6 | x6 | x6 | x6 | %100
 x6 | x6 | x6 | x6 | x6 | x6 | x6 | x6 | x6 | x6 | x6 | x6 | x6 | x6 | x6 | x6 | x6 | x6 | x6 | %119
 x6 | x6 | x6 | x _B2 x x2 |[M:6/8] x =B2 x x2 | x d2 x x2 | x6 | x6 | x3 C3 | x6 | x6 | x6 | x6 || %132
[M:2/4] x4 | x4 | x4 | x4 | x4 | x4 | x4 | x4 | x4 | x4 | x4 | x4 | x4 | x4 | x4 | x4 | x4 | x4 | %150
 x4 | x4 | x4 | x4 | ^G,4- | x4 | x4 | x4 | x4 | x4 | x4 | x4 | x4 | x4 | x4 | x4 | x4 | x4 | x4 | %169
 x4 | x4 | x4 | x4 | x4 | x4 | x4 | x4 | x4 | x4 | x4 | x4 | x4 | x4 | x4 | x4 | x4 | x4 | x4 | %188
 x4 | x4 | x4 | x4 | x4 | x4 | x4 | x4 | x4 | x4 | x4 | x4 | x4 | x4 | x4 | x3[K:bass] x | x4 | %205
 x4 | x4 | x4 | x4 | x4 | x4 | x4 | x4 | x4 | x4 | x4 | x4 | x4 | x4 | x4 |[K:treble] x4 | x4 | %222
 x4 | x4 | x4 | x4 | x4 | x4 | x4 | x4 | x4 | x4 |] %232
V:6
 x6 | x6 | x6 | x6 | x6 | x6 | x6 | x6 | x6 | x6 | x6 | x6 | x6 | x6 | x6 | x6 | x6 | x6 | x6 | %19
 x6 | x6 | x6 | x6 | x6 | x6 | x6 | x6 | x6 | x6 | x6 | x6 | x6 | x6 | x6 | x6 | x6 | x6 | x6 | %38
 x6 | x6 | x6 | x6 | x6 | x6 | x6 | x6 | x6 | x6 | x6 | x6 | x6 | x6 | x6 | x6 | x6 |[M:6/8] x6 | %56
 x6 | x6 |[K:treble] x6 |[K:bass] x6 | x6 | x6 | x6 | x6 | x/ x/ x2 x x2 | x6 | x6 | x6 | x6 | x6 | %70
 x6 | x6 | x6 | x6 | x6 | x6 | x6 | x6 | x6 | x6 | x6 | x E,G, x F,A, | x G,_B, x F,A, | %83
 x E,G, x F,A, | x G,_B, x ^G,=B, | x A,C x A,C | x E,B, x E,B, | x6 | x6 | x6 | x6 | x6 | x6 | %93
 x6 | x6 | x6 | x6 | x6 | x6 | x6 | x6 | x6 | x6 | x6 | x6 | x6 | x6 | x6 | x6 | x6 | x6 | x6 | %112
 x6 | x6 | x6 | x6 | x6 | x6 | A,,F, z B,A,F, | A,,E, z CA,E, | A,,F, z B,A,F, | A,,E, z CA,E, | %122
 ^CG,E, A,,3 |[M:6/8] D^G,F, A,,3 | DA,^F, A,,3 | C2 x4 | C2 x4 | C2 x4 | x6 | x6 | x6 | x6 || %132
[M:2/4] x4 | x4 | x4 | x4 | x4 | x4 | x4 | x4 | x4 | x4 | x4 | x4 | x4 | _G,,4- | G,,2 =G,,2 | %147
 (^F,,2 G,,2- | G,,2) ^G,,2 | A,,4- | A,,3 B,, | C, x3 | x4 | z2 (A,,_B,, | F,,4-) | %155
 (3(F,,E,,D,,!>(! B,,,2 | _B,,,4!>)! | A,,,2)"_sans " z2 | x4 | x4 | x4 | x4 | x4 | x4 | x4 | x4 | %166
 x4 | x4 | x4 | x4 | x4 | x4 | x4 | x4 | x4 | x4 | x4 | x4 | x4 | x4 | x4 | x4 | x4 | x4 | x4 | %185
 x4 | x4 | x4 | x4 | x4 | x4 | x _E,3 | D,4 | x4 | x4 | x4 | x4 | x4 | x4 | x4 | x4 | x4 | x4 | %203
 x4 | (!//-!^C,,2 ^C,2 | !//-!^C,,2 ^C,2 | !//-!^C,,2 ^C,2 | !//-!^C,,3/2 ^C,3/2) x | %208
 (!//-!C,2 =C2 | !//-!C,3/2 C3/2) x | !//-!B,,3/2 B,3/2 x | (!//-!_B,,2 _B,2 | !//-!_B,,2 _B,2 | %213
 !//-!_B,,3/2 _B,3/2) x | !//-!A,,2 A,2 | x4 | x4 | x4 | x4 | x4 | x4 | x4 | x4 | x4 | x4 | x4 | %226
 x4 | x4 | x4 | x4 | x4 | x4 |] %232
V:7
 x6 | x6 | x6 | x6 | x6 | x6 | x6 | x6 | x6 | x6 | x6 | x6 | x6 | x6 | x6 | x6 | x6 | x6 | x6 | %19
 x6 | x6 | x6 | x6 | x6 | x6 | x6 | x6 | x6 | x6 | x6 | x6 | x6 | x6 | x6 | x6 | x6 | x6 | x6 | %38
 x6 | x6 | x6 | x6 | x6 | x6 | x6 | x6 | x6 | x6 | x6 | x6 | x6 | x6 | x6 | x6 | x6 |[M:6/8] x6 | %56
[K:bass] x6 |[K:treble] x6 | x6 | x6 | x6 | x6 | x6 | x6 | x6 | x6 | x6 | x6 | x6 | x6 | x6 | x6 | %72
 x6 | x6 | x6 | x6 | x6 | x6 | x6 | x6 | x6 | x6 | x6 | x6 | x6 | x6 | x6 | x6 | x6 | x6 | x6 | %91
 x6 | x6 | x6 | x6 | x6 | x6 | x6 | x6 | x6 | x6 | x6 | x6 | x6 | x6 | x6 | x6 | x6 | x6 | x6 | %110
 x6 | x6 | x6 | x6 | x6 | x6 | x6 | x6 | x6 | x6 | x6 | x6 | x6 |[M:6/8] x6 | x6 | x6 | x6 | x6 | %128
 x6 | x6 | x6 | x6 ||[M:2/4] x4 | x4 | x4 | x4 | x4 | x4 | x4 | x4 | x4 | x4 | x4 | x4 | x4 | x4 | %146
 x4 | x4 | x4 | x4 | x4 | x4 | x4 | x4 | x D3 | x4 | x4 | x4 | x4 | x4 | x4 | x4 | x4 | x4 | x4 | %165
 x4 | x4 | x4 | x4 | x4 | x4 | x4 | x4 | x4 | x4 | x4 | x4 | x4 | x4 | x4 | x4 | x4 | x4 | x4 | %184
 x4 | x4 | x4 | x4 | x4 | x4 | x4 | x4 | x4 | x4 | x4 | x4 | x4 | x4 | x4 | x4 | x4 | x4 | x4 | %203
 x3[K:bass] x | x4 | x4 | x4 | x4 | x4 | x4 | x4 | x4 | x4 | x4 | x4 | x4 | x4 | x4 | x4 | x4 | %220
[K:treble] x4 | x4 | x4 | x4 | x4 | x4 | x4 | x4 | x4 | x4 | x4 | x4 |] %232

